X:064
U: ~ = !turn!
%%topmargin 3cm
T:Eileen O'Callaghan
B:Traditional Irish Fiddle Tunes. Randy Miller and Jack Perron.
Z:Transcribed by Ralph Palmer
S:Na Fili
R:Reel
L:1/8
M:C|
K:G
G2 BG DGBG | GABd cAFA | GB ~B2 dcBc | defd ((3cBA) FA |
G2 BG DGBG | GABd cAFA | GB ~B2dB ~B2 | defd ((3cBA) FA ::
dg{/a}gf Pg2 fg | ad ~d2 ad gd | dg{/a}gf Pg2 fe | defd ((3cBA) FA |
dg{/a}gf Pg2 fg | Ja2 ag agfe | dg ~g2 bg ~g2 | defd ((3cBA) FA :|]
